trunk/public/assets/images/icons/green/remove/question-circle.svg

<svg width="16" height="16" xmlns="http://www.w3.org/2000/svg" viewBox="0 0 16 16" shape-rendering="geometricPrecision" fill="#00962d"><defs><mask id="a"><rect fill="#fff" width="100%" height="100%"/><path fill="#000" d="M8.986 1.143H17v3.565H8.986z"/></mask></defs><path d="M9.986 2.143H16v1.565H9.986z" fill="#cb1800"/><path d="M8 .97C4.116.97.97 4.117.97 8.003c0 3.88 3.147 7.025 7.03 7.027 3.882-.002 7.03-3.146 7.03-7.027C15.03 4.116 11.882.97 8 .97zm0 12.638c-3.097-.006-5.602-2.512-5.608-5.605.006-3.1 2.51-5.606 5.607-5.61 3.097.005 5.602 2.51 5.608 5.61-.006 3.094-2.51 5.6-5.61 5.605zm-.083-3.4c-.662 0-1.132.47-1.132 1.156 0 .664.458 1.16 1.12 1.16h.013c.688 0 1.147-.496 1.147-1.16-.01-.685-.46-1.156-1.148-1.156zm.18-6.563c-.904 0-1.656.256-2.127.523l.434 1.387c.33-.23.84-.38 1.262-.38.637.024.93.317.93.763 0 .434-.333.842-.74 1.338-.575.676-.79 1.338-.75 1.988l.01.332h1.695v-.228c-.012-.574.18-1.074.65-1.594.486-.537 1.083-1.174 1.083-2.143 0-1.055-.765-1.985-2.446-1.985z" mask="url(#a)"/></svg>

<?xml version="1.0"?><!DOCTYPE svg PUBLIC "-//W3C//DTD SVG 1.1//EN" "http://www.w3.org/Graphics/SVG/1.1/DTD/svg11.dtd"><svg width="16px" height="16px" xmlns="http://www.w3.org/2000/svg" viewBox="0 0 16 16" shape-rendering="geometricPrecision" fill="#00962d"><defs><mask id="remove-path"><rect fill="#fff" width="100%" height="100%"/><rect x="8.986" y="1.143" width="8.014" height="3.565" fill="#000"/></mask></defs><g fill="#cb1800"><rect x="9.986" y="2.143" width="6.014" height="1.565"/></g><g mask="url(#remove-path)"><path d="M7.999,0.97c-3.882,0-7.029,3.147-7.029,7.033c0.001,3.881,3.147,7.025,7.029,7.027 c3.883-0.002,7.031-3.146,7.031-7.027C15.03,4.116,11.882,0.97,7.999,0.97z M7.999,13.608c-3.096-0.006-5.601-2.512-5.607-5.605 c0.006-3.1,2.511-5.606,5.607-5.611c3.098,0.006,5.603,2.512,5.609,5.611C13.602,11.097,11.097,13.603,7.999,13.608z M7.917,10.208c-0.662,0-1.132,0.471-1.132,1.156c0,0.664,0.458,1.16,1.121,1.16h0.012c0.688,0,1.147-0.496,1.147-1.16 C9.054,10.679,8.606,10.208,7.917,10.208z M8.097,3.645c-0.904,0-1.656,0.256-2.127,0.523l0.434,1.387 c0.33-0.229,0.839-0.381,1.262-0.381c0.637,0.025,0.93,0.318,0.93,0.764c0,0.434-0.333,0.842-0.741,1.338 c-0.574,0.676-0.788,1.338-0.75,1.988l0.012,0.332h1.694V9.368C8.798,8.794,8.989,8.294,9.46,7.774 c0.486-0.537,1.083-1.174,1.083-2.143C10.543,4.575,9.778,3.645,8.097,3.645z"/></g></svg>
